icons/glyphs/glyph-eraser.svg

<?xml version="1.0" encoding="UTF-8" standalone="no"?><svg height="22" viewBox="0 0 5.8208332 5.8208335" width="22" xmlns="http://www.w3.org/2000/svg"><sodipodi:namedview/><metadata><rdf:RDF><cc:Work><dc:format>image/svg+xml</dc:format><dc:type/><dc:title/></cc:Work></rdf:RDF></metadata><path d="m4.1903109.22036216c-.2879717-.28797178-.7463075-.29289204-1.0426795-.01903477l2.4721159 2.47211591c.2738575-.2963719.2689372-.7547075-.0190346-1.0426793zm-1.2196168.1536727-2.62611572 2.62611564 2.47634592 2.4763459 2.6261155-2.6261157zm-2.79600251 2.80587374c-.2458338.2966239-.23296758.7328678.0451194 1.0109547l1.41040196 1.410402c.2780869.2780869.7143312.2909525 1.0109547.045119z" fill="#d0d0d0"/></svg>

<?xml version="1.0" encoding="UTF-8" standalone="no"?>
<!-- Created with Inkscape (http://www.inkscape.org/) -->

<svg
   xmlns:dc="http://purl.org/dc/elements/1.1/"
   xmlns:cc="http://creativecommons.org/ns#"
   xmlns:rdf="http://www.w3.org/1999/02/22-rdf-syntax-ns#"
   xmlns:svg="http://www.w3.org/2000/svg"
   xmlns="http://www.w3.org/2000/svg"
   xmlns:sodipodi="http://sodipodi.sourceforge.net/DTD/sodipodi-0.dtd"
   xmlns:inkscape="http://www.inkscape.org/namespaces/inkscape"
   width="22"
   height="22"
   viewBox="0 0 5.8208332 5.8208335"
   version="1.1"
   id="svg8"
   inkscape:version="0.92+devel 15724 custom"
   sodipodi:docname="glyph-eraser.svg">
  <defs
     id="defs2" />
  <sodipodi:namedview
     id="base"
     pagecolor="#002466"
     bordercolor="#ffffff"
     borderopacity="0.37647059"
     inkscape:pageopacity="1"
     inkscape:pageshadow="2"
     inkscape:zoom="26.323657"
     inkscape:cx="11"
     inkscape:cy="11"
     inkscape:document-units="px"
     inkscape:current-layer="svg8"
     inkscape:document-rotation="0"
     showgrid="false"
     inkscape:showpageshadow="false"
     borderlayer="true"
     units="px"
     inkscape:window-width="1920"
     inkscape:window-height="1051"
     inkscape:window-x="0"
     inkscape:window-y="0"
     inkscape:window-maximized="1" />
  <metadata
     id="metadata5">
    <rdf:RDF>
      <cc:Work
         rdf:about="">
        <dc:format>image/svg+xml</dc:format>
        <dc:type
           rdf:resource="http://purl.org/dc/dcmitype/StillImage" />
        <dc:title></dc:title>
      </cc:Work>
    </rdf:RDF>
  </metadata>
  <path
     style="fill:#d0d0d0;stroke:none;stroke-width:0.12036788;stroke-linecap:round;stroke-linejoin:round"
     d="M 4.1903109,0.22036216 C 3.9023392,-0.06760962 3.4440034,-0.07252988 3.1476314,0.20132739 L 5.6197473,2.6734433 C 5.8936048,2.3770714 5.8886845,1.9187358 5.6007127,1.630764 Z M 2.9706941,0.37403486 0.34457838,3.0001505 2.8209243,5.4764964 5.4470398,2.8503807 Z M 0.17469159,3.1799086 c -0.2458338,0.2966239 -0.23296758,0.7328678 0.0451194,1.0109547 l 1.41040196,1.410402 c 0.2780869,0.2780869 0.7143312,0.2909525 1.0109547,0.045119 z"
     id="rect4264"
     inkscape:connector-curvature="0"
     sodipodi:nodetypes="sccssccccccsscc"
     inkscape:label="#" />
</svg>
